src/pos-icons/map-check.svg

<svg height="24" viewBox="0 0 24 24" width="24" xmlns="http://www.w3.org/2000/svg"><path d="m18.25 22-2.75-3 1.16-1.18 1.59 1.59 3.59-3.59 1.16 1.41m-2.5-14.23a.5.5 0 0 1 .5.5v9.86c-.64-.23-1.31-.36-2-.36-1.54 0-2.94.6-4 1.56v-7.46l-6-2.1v11.9l4.04 1.4c-.04.24-.04.47-.04.7 0 .46.06.92.16 1.36l-4.16-1.46-5.34 2.07c-.07.03-.11.03-.16.03a.5.5 0 0 1 -.5-.5v-15.12c0-.23.16-.41.35-.48l5.65-1.9 6 2.1 5.33-2.1"/></svg>

<?xml version="1.0" encoding="UTF-8"?><!DOCTYPE svg PUBLIC "-//W3C//DTD SVG 1.1//EN" "http://www.w3.org/Graphics/SVG/1.1/DTD/svg11.dtd"><svg xmlns="http://www.w3.org/2000/svg" xmlns:xlink="http://www.w3.org/1999/xlink" version="1.1" id="mdi-map-check" width="24" height="24" viewBox="0 0 24 24"><path d="M18.25,22L15.5,19L16.66,17.82L18.25,19.41L21.84,15.82L23,17.23M20.5,3A0.5,0.5 0 0,1 21,3.5V13.36C20.36,13.13 19.69,13 19,13C17.46,13 16.06,13.6 15,14.56V7.1L9,5V16.9L13.04,18.3C13,18.54 13,18.77 13,19C13,19.46 13.06,19.92 13.16,20.36L9,18.9L3.66,20.97C3.59,21 3.55,21 3.5,21A0.5,0.5 0 0,1 3,20.5V5.38C3,5.15 3.16,4.97 3.35,4.9L9,3L15,5.1L20.33,3" /></svg>
